usr/share/icons/biglinux-icons-material-dark/22/actions/object-group.svg

<svg xmlns="http://www.w3.org/2000/svg" viewBox="0 0 22 22">
<defs id="defs3051">
<style id="current-color-scheme" type="text/css">
.ColorScheme-Text{color:#dedede}
</style>
</defs>
<path d="M3 3v16h16V3zm1 1h14v14H4zm3.5 1A2.5 2.5 0 0 0 5 7.5 2.5 2.5 0 0 0 7.5 10 2.5 2.5 0 0 0 10 7.5 2.5 2.5 0 0 0 7.5 5M12 5v5h5V5zm-6 7v5h3v-5zm8.5 0L12 17h5z" class="ColorScheme-Text" style="fill:currentColor;fill-opacity:1;stroke:none"/>
</svg>

<svg xmlns="http://www.w3.org/2000/svg" viewBox="0 0 22 22">
  <defs id="defs3051">
    <style type="text/css" id="current-color-scheme">
      .ColorScheme-Text {
        color:#dedede;
      }
      .ColorScheme-Highlight {
        color:#3daee9;
      }
      </style>
  </defs>
 <path 
     style="fill:currentColor;fill-opacity:1;stroke:none" 
     d="M 3 3 L 3 19 L 19 19 L 19 3 L 3 3 z M 4 4 L 18 4 L 18 7 L 18 18 L 4 18 L 4 7 L 4 4 z M 7.5 5 A 2.5 2.5 0 0 0 5 7.5 A 2.5 2.5 0 0 0 7.5 10 A 2.5 2.5 0 0 0 10 7.5 A 2.5 2.5 0 0 0 7.5 5 z M 12 5 L 12 10 L 17 10 L 17 5 L 12 5 z M 6 12 L 6 17 L 9 17 L 9 12 L 6 12 z M 14.5 12 L 12 17 L 17 17 L 14.5 12 z "
     class="ColorScheme-Text"
     />
</svg>
